X:101
T:score188
L:1/16
Q:1/4=96
M:2/4
I:linebreak $
K:Eb
 (f2>e2) | (e2d2- dfec) | (c2B2- B=Bc=A) | (AG_BE EDFE | G2F2) (f2>e2) |$ (e2d2- dfec) | %6
 (=A2B2- B=Bc_A) | (G_BAF) (E2GF) | E2 z2 z4 |] %9
